!!!!SEGMENT: pl-wumfc--n68232--001-027_moniuszko-stanislaw--paria-wyciag-fortepianowy-akt-iii-wielospiew.krn
!!!cenid: 18xx:4157
!!!COM: Moniuszko, Stanisław
!!!COM-rismID: pe30008351
!!!CDT: 1819/05/05-1872/06/04
!!!CNT: Polish
!!!GTL: Paria – wyciąg fortepianowy
!!!OTL: Akt III. Wielośpiew
!!!OMV: 027
!!!PDT:
!!!AGN:
!!!YEC: Copyright 2022 Narodowy Instytut Fryderyka Chopina (https://polishscores.org)
!!!YEM: License CC-BY-4.0 (https://creativecommons.org/licenses/by/4.0)
!!!SMS-siglum: PL-Wumfc
!!!SMS-shelfmark: N68232
!!!SMS-variant:
!!!SMS-altvar:
!!!SMS-shelfwork: 001-027 G
!!!NIFC-rismSourceID: 1001171381
!!!NIFC-rismChildID: 1001171381
!!!NIFC-islandoraID: pl-wumfc:7210
!!!URL-pdf-islandora: https://repozytorium.nifc.pl/islandora/object/pl-wumfc%3A7210/datastream/PDF/view
!!!URL-scan: https://polish.musicsources.pl/pl/lokalizacje/galeria/druki-muzyczne/12634/1 @EN{Scan on Polish Music Sources Website} @PL{Skany w portalu Dziedzictwo Muzyki Polskiej w otwartym dostępie}
!!!IIIF:
!!!ONB-nifc: UWAGA: str. 109-110. Uwaga: proszę w pliku umieszczać obsadę, która występuje tylko w danej części.
!!!AIN: 2 bass 1 piano 2 tenor
!!!key: a
**kern	**kern	**fing	**dynam	**kern	**text	**text	**dynam	**kern	**text	**text	**dynam	**kern	**text	**text	**kern	**text	**text
*part5	*part5	*	*	*part4	*	*	*	*part3	*	*	*	*part2	*	*	*part1	*	*
*staff6	*staff5	*	*	*staff4	*	*	*	*staff3	*	*	*	*staff2	*	*	*staff1	*	*
*I"Piano.	*I"Piano.	*	*	*I"CHÓR OGÓLNY.\nCORO GENERALE.	*	*	*	*I"CHÓR OGÓLNY.\nCORO GENERALE.	*	*	*	*I"Akebar.	*	*	*I"Idamor.	*	*
*I'	*I'	*	*	*I'	*	*	*	*I'	*	*	*	*I'A.	*	*	*I'I.	*	*
*Ipiano	*Ipiano	*	*	*Ibass	*	*	*	*Itenor	*	*	*	*Ibass	*	*	*Itenor	*	*
*ICklav	*ICklav	*	*	*ICvox	*	*	*	*ICvox	*	*	*	*ICvox	*	*	*ICvox	*	*
*clefF4	*clefG2	*	*	*clefF4	*	*	*	*clefG2	*	*	*	*clefF4	*	*	*clefG2	*	*
*	*	*	*	*	*	*	*	*ITrd8c12	*	*	*	*	*	*	*ITrd8c12	*	*
*	*	*	*	*scale:85%	*	*	*	*scale:85%	*	*	*	*	*	*	*	*	*
*k[]	*k[]	*	*	*k[]	*	*	*	*k[]	*	*	*	*k[]	*	*	*k[]	*	*
*a:	*a:	*	*	*a:	*	*	*	*a:	*	*	*	*a:	*	*	*a:	*	*
*M2/2	*M2/2	*	*	*M2/2	*	*	*	*M2/2	*	*	*	*M2/2	*	*	*M2/2	*	*
*met(c|)	*met(c|)	*	*	*met(c|)	*	*	*	*met(c|)	*	*	*	*met(c|)	*	*	*met(c|)	*	*
=1	=1	=1	=1	=1	=1	=1	=1	=1	=1	=1	=1	=1	=1	=1	=1	=1	=1
!	!	!	!	!	!	!	!	!LO:TX:t=P:problem=partia zapisana bez przenośnika oktawowego	!	!	!	!	!	!	!LO:TX:t=P:problem=partia zapisana bez przenośnika oktawowego	!	!
!	!LO:TX:a:B:t=Molto agitato.	!	!	!LO:TX:a:t=B.	!	!	!	!LO:TX:a:t=T.	!	!	!	!	!	!	!LO:TX:a:B:t=Molto agitato.	!	!
16ALL 16F\	8.r	.	p	1r	.	.	.	1r	.	.	.	1r	.	.	1r	.	.
16c\	.	.	.	.	.	.	.	.	.	.	.	.	.	.	.	.	.
16A 16F\	.	.	.	.	.	.	.	.	.	.	.	.	.	.	.	.	.
16c\JJ	(16gg#X (16g#X^\	.	.	.	.	.	.	.	.	.	.	.	.	.	.	.	.
16ALL 16F\	[4aa [4a\))	.	.	.	.	.	.	.	.	.	.	.	.	.	.	.	.
16c\	.	.	.	.	.	.	.	.	.	.	.	.	.	.	.	.	.
16A 16F\	.	.	.	.	.	.	.	.	.	.	.	.	.	.	.	.	.
16c\JJ	.	.	.	.	.	.	.	.	.	.	.	.	.	.	.	.	.
16ALL 16F\	8.aa]L 8.a\]	.	.	.	.	.	.	.	.	.	.	.	.	.	.	.	.
16c\	.	.	.	.	.	.	.	.	.	.	.	.	.	.	.	.	.
16A 16F\	.	.	.	.	.	.	.	.	.	.	.	.	.	.	.	.	.
16c\JJ	(16gg#Jk (16g#^\	.	.	.	.	.	.	.	.	.	.	.	.	.	.	.	.
16ALL 16F\	[4aa [4a\))	.	.	.	.	.	.	.	.	.	.	.	.	.	.	.	.
16c\	.	.	.	.	.	.	.	.	.	.	.	.	.	.	.	.	.
16A 16F\	.	.	.	.	.	.	.	.	.	.	.	.	.	.	.	.	.
16c\JJ	.	.	.	.	.	.	.	.	.	.	.	.	.	.	.	.	.
=2	=2	=2	=2	=2	=2	=2	=2	=2	=2	=2	=2	=2	=2	=2	=2	=2	=2
16ALL 16F 16E\	8.aa]L 8.a\]	.	.	1r	.	.	.	1r	.	.	.	1r	.	.	1r	.	.
16c\	.	.	.	.	.	.	.	.	.	.	.	.	.	.	.	.	.
16A 16F 16E\	.	.	.	.	.	.	.	.	.	.	.	.	.	.	.	.	.
16c\JJ	16ggnK 16gn\	.	.	.	.	.	.	.	.	.	.	.	.	.	.	.	.
16ALL 16F 16E\	8.ff 8.f\	.	.	.	.	.	.	.	.	.	.	.	.	.	.	.	.
16c\	.	.	.	.	.	.	.	.	.	.	.	.	.	.	.	.	.
16A 16F 16E\	.	.	.	.	.	.	.	.	.	.	.	.	.	.	.	.	.
16c\JJ	16ggJk 16g\	.	.	.	.	.	.	.	.	.	.	.	.	.	.	.	.
16ALL 16F 16E\	8aaL 8a\	.	.	.	.	.	.	.	.	.	.	.	.	.	.	.	.
16c\	.	.	.	.	.	.	.	.	.	.	.	.	.	.	.	.	.
16A 16F 16E\	16r	.	.	.	.	.	.	.	.	.	.	.	.	.	.	.	.
16c\JJ	(16gg#XJk (16g#X^\	.	.	.	.	.	.	.	.	.	.	.	.	.	.	.	.
16ALL 16F 16E\	[4aa [4a\))	.	.	.	.	.	.	.	.	.	.	.	.	.	.	.	.
16c\	.	.	.	.	.	.	.	.	.	.	.	.	.	.	.	.	.
16A 16F 16E\	.	.	.	.	.	.	.	.	.	.	.	.	.	.	.	.	.
16c\JJ	.	.	.	.	.	.	.	.	.	.	.	.	.	.	.	.	.
!!LO:LB:g=original
=3	=3	=3	=3	=3	=3	=3	=3	=3	=3	=3	=3	=3	=3	=3	=3	=3	=3
!	!LO:TX:t=P:problem=brak zakończenia ligatur	!	!	!	!	!	!	!	!	!	!	!	!	!	!	!	!
16ALL 16F 16D\	8aa]L 8a\]	.	.	1ryy	.	.	.	1ryy	.	.	.	1ryy	.	.	1r	.	.
16c\	.	.	.	.	.	.	.	.	.	.	.	.	.	.	.	.	.
16A 16F 16D\	16r	.	.	.	.	.	.	.	.	.	.	.	.	.	.	.	.
16c\JJ	(16gg#Jk (16g#X^\	.	.	.	.	.	.	.	.	.	.	.	.	.	.	.	.
16ALL 16F 16D\	[4aa [4a\))	.	.	.	.	.	.	.	.	.	.	.	.	.	.	.	.
16c\	.	.	.	.	.	.	.	.	.	.	.	.	.	.	.	.	.
16A 16F 16D\	.	.	.	.	.	.	.	.	.	.	.	.	.	.	.	.	.
16c\JJ	.	.	.	.	.	.	.	.	.	.	.	.	.	.	.	.	.
16ALL 16F 16D\	8.aa]L 8.a\]	.	.	.	.	.	.	.	.	.	.	.	.	.	.	.	.
16c\	.	.	.	.	.	.	.	.	.	.	.	.	.	.	.	.	.
16A 16F 16D\	.	.	.	.	.	.	.	.	.	.	.	.	.	.	.	.	.
16c\JJ	(16gg#Jk (16g#^\	.	.	.	.	.	.	.	.	.	.	.	.	.	.	.	.
16ALL 16F 16D\	[4aa [4a\))	.	.	.	.	.	.	.	.	.	.	.	.	.	.	.	.
16c\	.	.	.	.	.	.	.	.	.	.	.	.	.	.	.	.	.
16A 16F 16D\	.	.	.	.	.	.	.	.	.	.	.	.	.	.	.	.	.
16c\JJ	.	.	.	.	.	.	.	.	.	.	.	.	.	.	.	.	.
=4	=4	=4	=4	=4	=4	=4	=4	=4	=4	=4	=4	=4	=4	=4	=4	=4	=4
16ALL 16F 16C\	8.aa]L 8.a\]	.	.	1ryy	.	.	.	1ryy	.	.	.	1ryy	.	.	2r	.	.
16c\	.	.	.	.	.	.	.	.	.	.	.	.	.	.	.	.	.
16A 16F 16C\	.	.	.	.	.	.	.	.	.	.	.	.	.	.	.	.	.
16c\JJ	16ggnK 16gn\	.	.	.	.	.	.	.	.	.	.	.	.	.	.	.	.
16ALL 16F 16C\	8.ff 8.f\	.	.	.	.	.	.	.	.	.	.	.	.	.	.	.	.
16c\	.	.	.	.	.	.	.	.	.	.	.	.	.	.	.	.	.
16A 16F 16C\	.	.	.	.	.	.	.	.	.	.	.	.	.	.	.	.	.
16c\JJ	16ggJk 16g\	.	.	.	.	.	.	.	.	.	.	.	.	.	.	.	.
16ALL 16F 16C\	8aaL 8a\	.	.	.	.	.	.	.	.	.	.	.	.	.	4r	.	.
16c\	.	.	.	.	.	.	.	.	.	.	.	.	.	.	.	.	.
16A 16F 16C\	16r	.	.	.	.	.	.	.	.	.	.	.	.	.	.	.	.
16c\JJ	(16dd\Jk	.	.	.	.	.	.	.	.	.	.	.	.	.	.	.	.
!	!	!	!	!	!	!	!	!	!	!	!	!	!	!	!LO:TX:a:i:t=(al popolo)	!	!
!	!	!	!	!	!	!	!	!	!	!	!	!	!	!	!LO:TX:a:t=(do ludu)	!	!
16ALL 16F 16C\	8ff\)	.	.	.	.	.	.	.	.	.	.	.	.	.	4A/	Mil-	In-
16c\	.	.	.	.	.	.	.	.	.	.	.	.	.	.	.	.	.
16A 16F 16C\	8r	.	.	.	.	.	.	.	.	.	.	.	.	.	.	.	.
16c\JJ	.	.	.	.	.	.	.	.	.	.	.	.	.	.	.	.	.
=5	=5	=5	=5	=5	=5	=5	=5	=5	=5	=5	=5	=5	=5	=5	=5	=5	=5
8BB/	8.r	.	f	1ryy	.	.	.	1ryy	.	.	.	1ryy	.	.	2d\	-czy-	-gra-
8r	.	.	.	.	.	.	.	.	.	.	.	.	.	.	.	.	.
.	16ddd 16aa 16ff 16dd\	.	.	.	.	.	.	.	.	.	.	.	.	.	.	.	.
8.r	8ddd 8aa 8ff 8dd\	.	.	.	.	.	.	.	.	.	.	.	.	.	.	.	.
.	8r	.	.	.	.	.	.	.	.	.	.	.	.	.	.	.	.
16BB 16BBB/	.	.	.	.	.	.	.	.	.	.	.	.	.	.	.	.	.
8E 8EE^/	8.r	.	.	.	.	.	.	.	.	.	.	.	.	.	4B\	-cie?	-ti!
8r	.	.	.	.	.	.	.	.	.	.	.	.	.	.	.	.	.
.	16bb 16gg#X 16ee 16b\	.	.	.	.	.	.	.	.	.	.	.	.	.	.	.	.
8.r	8bb 8gg# 8ee 8b\	.	.	.	.	.	.	.	.	.	.	.	.	.	8r	.	.
.	8r	.	.	.	.	.	.	.	.	.	.	.	.	.	8B\	nie-	ta-
16E 16EE/	.	.	.	.	.	.	.	.	.	.	.	.	.	.	.	.	.
!!LO:LB:g=original
=6	=6	=6	=6	=6	=6	=6	=6	=6	=6	=6	=6	=6	=6	=6	=6	=6	=6
8C 8CC/	8.r	.	.	1ryy	.	.	.	1ryy	.	.	.	2r	.	.	4e\	-wdzię-	-ce-
8r	.	.	.	.	.	.	.	.	.	.	.	.	.	.	.	.	.
.	16eee 16bb 16gg#X 16ee\	.	.	.	.	.	.	.	.	.	.	.	.	.	.	.	.
8.r	8eee 8bb 8gg# 8ee\	.	.	.	.	.	.	.	.	.	.	.	.	.	4A/	-czni!	-te...
.	8r	.	.	.	.	.	.	.	.	.	.	.	.	.	.	.	.
16C 16CC/	.	.	.	.	.	.	.	.	.	.	.	.	.	.	.	.	.
!	!	!	!	!	!	!	!	!	!	!	!	!LO:TX:a:i:t=Akebar.	!	!	!	!	!
!	!	!	!	!	!	!	!	!	!	!	!	!LO:TX:a:t=Akebar.	!	!	!	!	!
8F 8FF/	8.r	.	.	.	.	.	.	.	.	.	.	4r	.	.	2r	.	.
8r	.	.	.	.	.	.	.	.	.	.	.	.	.	.	.	.	.
.	16aa\	2	.	.	.	.	.	.	.	.	.	.	.	.	.	.	.
8.fL 8.F\	(16bb\LL	1	.	.	.	.	.	.	.	.	.	4A\	Któż	Co-	.	.	.
.	16ccc\	.	.	.	.	.	.	.	.	.	.	.	.	.	.	.	.
.	16ddd\	.	.	.	.	.	.	.	.	.	.	.	.	.	.	.	.
16eJk 16E\	16eee\JJ)	.	.	.	.	.	.	.	.	.	.	.	.	.	.	.	.
=7	=7	=7	=7	=7	=7	=7	=7	=7	=7	=7	=7	=7	=7	=7	=7	=7	=7
8d 8D\	8fff\L	.	.	1ryy	.	.	.	1ryy	.	.	.	4d\	śmia-	-tan-	1r	.	.
8r	8fffJ 8aa 8ff\	.	.	.	.	.	.	.	.	.	.	.	.	.	.	.	.
8c 8C\	8r	.	.	.	.	.	.	.	.	.	.	4c\	-łość	-to_ar-	.	.	.
8r	8eee 8aa 8ee\	.	.	.	.	.	.	.	.	.	.	.	.	.	.	.	.
8B 8BB\	8r	.	.	.	.	.	.	.	.	.	.	4B\	tę	-dir	.	.	.
8r	8ddd 8aa 8dd\	.	.	.	.	.	.	.	.	.	.	.	.	.	.	.	.
8A 8AA\	8r	.	.	.	.	.	.	.	.	.	.	4A\	wy-	chi	.	.	.
8r	8ccc 8aa 8cc\	.	.	.	.	.	.	.	.	.	.	.	.	.	.	.	.
=8	=8	=8	=8	=8	=8	=8	=8	=8	=8	=8	=8	=8	=8	=8	=8	=8	=8
8G 8GG/	8r	.	.	1ryy	.	.	.	1ryy	.	.	.	(4.G\	-sło-	tol-	2r	.	.
8r	8bb 8ee 8b\	.	.	.	.	.	.	.	.	.	.	.	.	.	.	.	.
8F 8FF/	8r	.	.	.	.	.	.	.	.	.	.	.	.	.	.	.	.
8r	8aa 8dd#X 8b\	.	.	.	.	.	.	.	.	.	.	8F\)	.	-le-	.	.	.
8E 8EE/	16gg#X\LL	.	.	.	.	.	.	.	.	.	.	4E\	-wi!	-ra!	4.e\	Hań-	On-
.	16ee\	.	.	.	.	.	.	.	.	.	.	.	.	.	.	.	.
8r	16gg#\	.	.	.	.	.	.	.	.	.	.	.	.	.	.	.	.
.	16bb\JJ	.	.	.	.	.	.	.	.	.	.	.	.	.	.	.	.
8e\	(16eee\LL	.	.	.	.	.	.	.	.	.	.	4r	.	.	.	.	.
.	16dddn\	.	.	.	.	.	.	.	.	.	.	.	.	.	.	.	.
8r	16ccc\	.	.	.	.	.	.	.	.	.	.	.	.	.	8e\	-ba	-ta_a
.	16bb\JJ)	.	.	.	.	.	.	.	.	.	.	.	.	.	.	.	.
!!LO:PB:g=original
=9	=9	=9	=9	=9	=9	=9	=9	=9	=9	=9	=9	=9	=9	=9	=9	=9	=9
4A 4AA^\	8ccc\L	.	f	2A\	.	.	.	2e 2c\	Bra-	Bra-	.	1ryy	.	.	4A/	wam!	voi!
.	16r	.	.	.	.	.	.	.	.	.	.	.	.	.	.	.	.
.	16aaJk 16ee 16cc 16a\	.	.	.	.	.	.	.	.	.	.	.	.	.	.	.	.
16BB/LL	8aa 8ee 8cc 8a\	.	.	.	.	.	.	.	.	.	.	.	.	.	4r	.	.
16C/	.	.	.	.	.	.	.	.	.	.	.	.	.	.	.	.	.
16D/	8r	.	.	.	.	.	.	.	.	.	.	.	.	.	.	.	.
16E/JJ	.	.	.	.	.	.	.	.	.	.	.	.	.	.	.	.	.
4F\	4a^>/	.	.	4A\	.	.	.	4f\	-ma!	-ma!	.	.	.	.	2r	.	.
4e 4E\	16b\LL	.	.	4r	.	.	.	4r	.	.	.	.	.	.	.	.	.
.	16cc\	.	.	.	.	.	.	.	.	.	.	.	.	.	.	.	.
.	16dd\	.	.	.	.	.	.	.	.	.	.	.	.	.	.	.	.
.	16ee\JJ	.	.	.	.	.	.	.	.	.	.	.	.	.	.	.	.
=10	=10	=10	=10	=10	=10	=10	=10	=10	=10	=10	=10	=10	=10	=10	=10	=10	=10
*	*^	*	*	*	*	*	*	*	*	*	*	*	*	*	*	*	*
4d 4D\	4dd^/	4ff\	.	.	2r	.	.	.	2r	.	.	.	1ryy	.	.	1r	.	.
4c 4C\	16ee/LL	4ee\	.	.	.	.	.	.	.	.	.	.	.	.	.	.	.	.
.	16ff/	.	.	.	.	.	.	.	.	.	.	.	.	.	.	.	.	.
.	16gg/	.	.	.	.	.	.	.	.	.	.	.	.	.	.	.	.	.
.	16aa/JJ	.	.	.	.	.	.	.	.	.	.	.	.	.	.	.	.	.
4B 4BB\	4bb/	4dd\	.	.	8.r	.	.	.	8.r	.	.	.	.	.	.	.	.	.
.	.	.	.	.	16B\	.	.	.	16d\	Niech	Col	.	.	.	.	.	.	.
4A 4AA\	8.dddL 8.ff#X 8.dd\	4ryy	.	.	8.A\	.	.	.	8.f#X 8.c\	je-	san-	.	.	.	.	.	.	.
.	16cccJk 16cc\	.	.	.	16A\	.	.	.	16f# 16c\	-go	-gue	.	.	.	.	.	.	.
=11	=11	=11	=11	=11	=11	=11	=11	=11	=11	=11	=11	=11	=11	=11	=11	=11	=11	=11
*	*	*	*	*	*	*	*	*	*^	*	*	*	*	*	*	*	*	*
4G 4GG^/	8bbL 8gg 8b\	2.ryy	.	.	4G\	.	.	.	4g 4B\	4ryy	krew,	suo	.	1ryy	.	.	1r	.	.
.	16r	.	.	.	.	.	.	.	.	.	.	.	.	.	.	.	.	.	.
.	16ggJk 16dd 16b 16g\	.	.	.	.	.	.	.	.	.	.	.	.	.	.	.	.	.	.
16AA/LL	8gg 8dd 8b 8g\	.	.	.	8r	.	.	.	8r	8ryy	.	.	.	.	.	.	.	.	.
16BB/	.	.	.	.	.	.	.	.	.	.	.	.	.	.	.	.	.	.	.
16C/	8r	.	.	.	8G\	.	.	.	8G/	8G\	Blu-	la-	.	.	.	.	.	.	.
16D/JJ	.	.	.	.	.	.	.	.	.	.	.	.	.	.	.	.	.	.	.
4E\	4cc 4c^/	.	.	.	4.G\	.	.	.	4.G/	4.G\	-źnier-	-var	.	.	.	.	.	.	.
4d 4D\	16dd/LL	4r	.	.	.	.	.	.	.	.	.	.	.	.	.	.	.	.	.
.	16ee/	.	.	.	.	.	.	.	.	.	.	.	.	.	.	.	.	.	.
.	16ff/	.	.	.	8G\	.	.	.	8G/	8G\	-cza	si	.	.	.	.	.	.	.
.	16gg/JJ	.	.	.	.	.	.	.	.	.	.	.	.	.	.	.	.	.	.
*	*	*	*	*	*	*	*	*	*v	*v	*	*	*	*	*	*	*	*	*
!!LO:LB:g=original
=12	=12	=12	=12	=12	=12	=12	=12	=12	=12	=12	=12	=12	=12	=12	=12	=12	=12	=12
*^	*	*	*	*	*	*	*	*	*	*	*	*	*	*	*	*	*	*
!	!	!	!	!	!	!	!	!	!	!	!	!	!	!LO:TX:a:i:t=Akebar.	!	!	!	!	!
!LO:TX:a:i:t=m.s.	!	!	!	!	!	!	!	!	!	!	!	!	!	!LO:TX:a:t=Akebar.	!	!	!	!	!
4e>\	4C/	4aa^/	4ryy	.	.	4c\	.	.	.	4e\	krew	de'	.	1r	.	.	1ryy	.	.
4B-X 4BB-X\	2.ryy	4dd/	(>16f\LL	.	.	8.B-X\	.	.	.	8.d\	zmy-	l'i-	.	.	.	.	.	.	.
.	.	.	16g\	.	.	.	.	.	.	.	.	.	.	.	.	.	.	.	.
.	.	.	16a\	.	.	.	.	.	.	.	.	.	.	.	.	.	.	.	.
.	.	.	16b-X\JJ)	.	.	16B-\	.	.	.	16d\	-je	-go-	.	.	.	.	.	.	.
4A 4AA\	.	4ff/	4cc\	.	.	8.A\	.	.	.	8.c\	z_nas	-mi-	.	.	.	.	.	.	.
.	.	.	.	.	.	16A\	.	.	.	16c\	prze-	-gnia_e	.	.	.	.	.	.	.
4G 4GG/	.	8.eeL 8.cc#X 8.b-X\	4ryy	.	.	8.G\	.	.	.	8.c#X 8.B-X\	-kleń-	il_di-	.	.	.	.	.	.	.
.	.	16ee\Jk	.	.	.	16G\	.	.	.	16c# 16B-\	-stwo	-so-	.	.	.	.	.	.	.
*v	*v	*	*	*	*	*	*	*	*	*	*	*	*	*	*	*	*	*	*
*	*v	*v	*	*	*	*	*	*	*	*	*	*	*	*	*	*	*	*
=13	=13	=13	=13	=13	=13	=13	=13	=13	=13	=13	=13	=13	=13	=13	=13	=13	=13
4F 4FF/	8aaL 8dd 8a^\	.	.	8F\	.	.	.	8d 8A\	swe.	-nor.	.	4r	.	.	1ryy	.	.
.	16r	.	.	8r	.	.	.	8r	.	.	.	.	.	.	.	.	.
.	16aa\Jk	.	.	.	.	.	.	.	.	.	.	.	.	.	.	.	.
4E 4EE/	(16bb\LL	.	.	4r	.	.	.	4r	.	.	.	4A\	Sły-	Il	.	.	.
.	16ccc\	.	.	.	.	.	.	.	.	.	.	.	.	.	.	.	.
.	16ddd\	.	.	.	.	.	.	.	.	.	.	.	.	.	.	.	.
.	16eee\JJ)	.	.	.	.	.	.	.	.	.	.	.	.	.	.	.	.
4D 4DD^/	4fff 4ff\	.	.	2r	.	.	.	2r	.	.	.	4.d\	-szy-	cie-	.	.	.
(16EE/LL	4eee 4ee\	.	.	.	.	.	.	.	.	.	.	.	.	.	.	.	.
16FF/	.	.	.	.	.	.	.	.	.	.	.	.	.	.	.	.	.
16GG/	.	.	.	.	.	.	.	.	.	.	.	8d\	-cie	-lo	.	.	.
16AA/JJ)	.	.	.	.	.	.	.	.	.	.	.	.	.	.	.	.	.
=14	=14	=14	=14	=14	=14	=14	=14	=14	=14	=14	=14	=14	=14	=14	=14	=14	=14
4BB/	4ddd 4gg 4dd^\	.	.	1r	.	.	.	1r	.	.	.	4.d\	bo-	fre-	1ryy	.	.
4A 4AA\	16aa\LL	.	.	.	.	.	.	.	.	.	.	.	.	.	.	.	.
.	16bb\	.	.	.	.	.	.	.	.	.	.	.	.	.	.	.	.
.	16ccc\	.	.	.	.	.	.	.	.	.	.	8c\	-gów	-me	.	.	.
.	16ddd\JJ	.	.	.	.	.	.	.	.	.	.	.	.	.	.	.	.
4G 4GG/	4eee 4bb 4ee^\	.	.	.	.	.	.	.	.	.	.	4B\	stra-	di	.	.	.
4F 4FF/	16dddLL 16aa\	.	.	.	.	.	.	.	.	.	.	4A\	-szny	fu-	.	.	.
.	16dd\	.	.	.	.	.	.	.	.	.	.	.	.	.	.	.	.
.	16ee\	.	.	.	.	.	.	.	.	.	.	.	.	.	.	.	.
.	16ff\JJ	.	.	.	.	.	.	.	.	.	.	.	.	.	.	.	.
!!LO:LB:g=original
=15	=15	=15	=15	=15	=15	=15	=15	=15	=15	=15	=15	=15	=15	=15	=15	=15	=15
*^	*	*	*	*	*	*	*	*^	*	*	*	*	*	*	*	*	*
4E 4EE/	2.ryy	4gg 4cc^\	.	.	2G\	.	.	.	2g 2G\	2ryy	Bra-	Bra-	.	4G\	gniew?	-ror!	1ryy	.	.
4D 4DD/	.	16aaLL 16ff\	.	.	.	.	.	.	.	.	.	.	.	8r	.	.	.	.	.
.	.	16bb\	.	.	.	.	.	.	.	.	.	.	.	.	.	.	.	.	.
.	.	16ccc\	.	.	.	.	.	.	.	.	.	.	.	8G\	Niech	Col	.	.	.
.	.	16ddd\JJ	.	.	.	.	.	.	.	.	.	.	.	.	.	.	.	.	.
4C 4CC^/	.	4eee 4ee\	.	.	4G\	.	.	.	4G/	4G\	-ma!	-ma!	.	4.e\	krew	san-	.	.	.
4BB/	16DD\LL	4ddd 4dd\	.	.	4r	.	.	.	4r	4ryy	.	.	.	.	.	.	.	.	.
.	16EE\	.	.	.	.	.	.	.	.	.	.	.	.	.	.	.	.	.	.
.	16FF\	.	.	.	.	.	.	.	.	.	.	.	.	8d\	blu-	-gue	.	.	.
.	16GG\JJ	.	.	.	.	.	.	.	.	.	.	.	.	.	.	.	.	.	.
*v	*v	*	*	*	*	*	*	*	*	*	*	*	*	*	*	*	*	*	*
=16	=16	=16	=16	=16	=16	=16	=16	=16	=16	=16	=16	=16	=16	=16	=16	=16	=16	=16
4AA/	4ccc 4ff 4cc^\	.	.	2c\	.	.	.	2c/	2c\	Bra-	Bra-	.	4.c\	-źnier-	suo	1ryy	.	.
4BB 4GG/	16gg\LL	.	.	.	.	.	.	.	.	.	.	.	.	.	.	.	.	.
.	16aa\	.	.	.	.	.	.	.	.	.	.	.	.	.	.	.	.	.
.	16bb\	.	.	.	.	.	.	.	.	.	.	.	8B\	-cy	la-	.	.	.
.	16ccc\JJ	.	.	.	.	.	.	.	.	.	.	.	.	.	.	.	.	.
4D 4FF/	8.aaL 8.dd^\	.	.	4C/	.	.	.	4c/	4c\	-ma!	-ma!	.	4A\	zmy-	-var	.	.	.
.	16a\Jk	.	.	.	.	.	.	.	.	.	.	.	.	.	.	.	.	.
4E 4EE/	16b\LL	.	.	4r	.	.	.	4r	4ryy	.	.	.	4G\	-je	si	.	.	.
.	16cc\	.	.	.	.	.	.	.	.	.	.	.	.	.	.	.	.	.
.	16dd\	.	.	.	.	.	.	.	.	.	.	.	.	.	.	.	.	.
.	16ee\JJ	.	.	.	.	.	.	.	.	.	.	.	.	.	.	.	.	.
*	*	*	*	*	*	*	*	*v	*v	*	*	*	*	*	*	*	*	*
=17	=17	=17	=17	=17	=17	=17	=17	=17	=17	=17	=17	=17	=17	=17	=17	=17	=17
!	!	!	!LO:DY:t=sempre ff	!	!	!	!	!	!	!	!	!	!	!	!	!	!
8DL 8DD\	8ff 8cc 8a-X\	.	ff	2r	.	.	.	8r	.	.	.	4F\	z_nas	de'	1ryy	.	.
16r	16r	.	.	.	.	.	.	8d\	blu-	Col	.	.	.	.	.	.	.
16cJk 16A-X 16F 16D\	16f/	.	.	.	.	.	.	.	.	.	.	.	.	.	.	.	.
8.cL 8.A- 8.F 8.D\	8.f/L	.	.	.	.	.	.	8.d\	-źnier-	san-	.	4A-X\	prze-	il	.	.	.
16cJk 16A- 16F 16D\	16a-Jk 16f/	.	.	.	.	.	.	16d\	-cy	-gue	.	.	.	.	.	.	.
!	!	!	!	!	!	!	!	!LO:TX:t=P:problem=brak początku ligatury	!	!	!	!	!	!	!	!	!
8.cL 8.A- 8.F 8.D\	8.a-L 8.f/	.	.	8r	.	.	.	[2d\	krew	suo	.	4.A-\	-kleń-	di-	.	.	.
.	.	.	.	8c\	niech	la-	.	.	.	.	.	.	.	.	.	.	.
16cJk 16A- 16F 16D\	16ccJk 16a- 16f/	.	.	.	.	.	.	.	.	.	.	.	.	.	.	.	.
8.cL 8.A- 8.F 8.D\	8.ccL 8.a- 8.f/	.	.	8.c\	zmy-	-var	.	.	.	.	.	.	.	.	.	.	.
.	.	.	.	.	.	.	.	.	.	.	.	8A-\	-stwo	-so-	.	.	.
16cJk 16A- 16F 16D\	16ffJk 16cc 16a- 16f/	.	.	16c\	-je	si	.	.	.	.	.	.	.	.	.	.	.
!!LO:PB:g=original
=18	=18	=18	=18	=18	=18	=18	=18	=18	=18	=18	=18	=18	=18	=18	=18	=18	=18
!	!	!	!	!	!	!	!	!	!	!	!	!LO:TX:a:i:t=(sguaina il pugnale e colpisce Idamor)	!	!	!LO:TX:a:i:t=Idamor.	!	!
!	!	!	!	!	!	!	!	!	!	!	!	!LO:TX:a:t=(dobywa puginał i przebija Idamora)	!	!	!LO:TX:a:t=Idamor.	!	!
8.cL 8.A-X 8.F 8.D\	8.ffL 8.cc 8.a-X 8.f\	.	.	[2c\	z_nas	de'	.	8.d\]	.	.	.	4A-X\	swe!	-nor!	1r	.	.
16cJk 16A- 16F 16D\	16aa-XJk 16ff 16cc\	.	.	.	.	.	.	16d\	Niech	la-	.	.	.	.	.	.	.
8.cL 8.A- 8.F 8.D\	8.aa-L 8.ff 8.cc\	.	.	.	.	.	.	8.d\	zmy-	-var	.	4r	.	.	.	.	.
*	*8va	*	*	*	*	*	*	*	*	*	*	*	*	*	*	*	*
16cJk 16A- 16F 16D\	16cccJk 16aa- 16ff 16cc\	.	.	.	.	.	.	16d\	-je	si	.	.	.	.	.	.	.
8.cL 8.A- 8.F 8.D\	8.cccL 8.aa- 8.ff 8.cc\	.	.	8.c\]	.	.	.	8.d\	z_nas	de'	.	2r	.	.	.	.	.
16cJk 16A- 16F 16D\	16fffJk 16ccc 16aa- 16ff\	.	.	16c\	prze-	il	.	16f 16d\	prze-	il	.	.	.	.	.	.	.
8.cL 8.A- 8.F 8.D\	8.fffL 8.ccc 8.aa- 8.ff\	.	.	8.c\	-kleń-	di-	.	8.f 8.d\	-kleń-	di-	.	.	.	.	.	.	.
16DJk 16FF 16DD\	16aaa-XJk 16fff 16ccc 16aa-^<\	.	.	16c\	-stwo	-so-	.	16f 16d\	-stwo	-so-	.	.	.	.	.	.	.
=19||	=19||	=19||	=19||	=19||	=19||	=19||	=19||	=19||	=19||	=19||	=19||	=19||	=19||	=19||	=19||	=19||	=19||
*M4/4	*M4/4	*	*	*M4/4	*	*	*	*M4/4	*	*	*	*M4/4	*	*	*M4/4	*	*
*met(c)	*met(c)	*	*	*met(c)	*	*	*	*met(c)	*	*	*	*met(c)	*	*	*met(c)	*	*
!	!LO:TX:a:B:t=Un poco più lento.	!	!	!	!	!	!	!	!	!	!	!	!	!	!LO:TX:a:B:t=Un poco più lento.	!	!
[1D [>1FF [1DD	[1aaa-X [1fff [1ccc [1aa-X	.	sfff	2c 2F\	swe!	-nor!	.	2a-X 2f\	swe!	-nor!	.	4r	.	.	1r	.	.
*	*	*	*	*	*	*	*	*	*	*	*	*clefF4	*	*	*	*	*
!	!	!	!	!	!	!	!	!	!	!	!	!LO:TX:a:i:t=Djares (che era rimasto immobile, seguendo il corso\ndei suoi pensieri)	!	!	!	!	!
!	!	!	!	!	!	!	!	!	!	!	!	!LO:TX:a:t=Dżares (który dotąd stał w osłupieniu)	!	!	!	!	!
.	.	.	.	.	.	.	.	.	.	.	.	8r	.	.	.	.	.
.	.	.	.	.	.	.	.	.	.	.	.	8c\	Mój	Mio	.	.	.
!	!LO:TX:b:i:t=molto	!	!	!	!	!	!	!	!	!	!	!	!	!	!	!	!
.	.	.	.	2r	.	.	.	2r	.	.	.	[2f\	Sy-	fi-	.	.	.
=20	=20	=20	=20	=20	=20	=20	=20	=20	=20	=20	=20	=20	=20	=20	=20	=20	=20
!	!	!	!LO:HP:t=diminuendo	!	!	!	!	!	!	!	!	!	!	!	!	!	!
1D] 1FF] 1DD]	1aaa-] 1fff] 1ccc] 1aa-]	.	>	1r	.	.	.	1r	.	.	.	4f\]	.	.	4r	.	.
.	.	.	.	.	.	.	.	.	.	.	.	8c\	-nu!	-glio!	8r	.	.
!	!	!	!	!	!	!	!	!	!	!	!	!	!	!	!LO:TX:a:i:t=(spirando)	!	!
!	!	!	!	!	!	!	!	!	!	!	!	!	!	!	!LO:TX:a:t=(konając)	!	!
.	.	.	.	.	.	.	.	.	.	.	.	8r	.	.	8c\	Moj	O
.	.	.	.	.	.	.	.	.	.	.	.	2r	.	.	2c\	Oj-	pa-
!!LO:LB:g=original
=21	=21	=21	=21	=21	=21	=21	=21	=21	=21	=21	=21	=21	=21	=21	=21	=21	=21
[1D [>1FF [1DD	8r	.	.	8F\	.	.	p	8A-X/	Sta-	Spi-	p	1ryy	.	.	4A-X/	-cze.	-dre.
.	4fff 4ff\	.	.	8F\	.	.	.	8A-/	-ło	-ra	.	.	.	.	.	.	.
.	.	.	.	4F\	.	.	.	4A-/	się!	gia!	.	.	.	.	4r	.	.
.	4ddd 4dd/	.	.	.	.	.	.	.	.	.	.	.	.	.	.	.	.
.	.	.	.	2r	.	.	.	2r	.	.	.	.	.	.	2r	.	.
.	4ccc 4cc/	.	.	.	.	.	.	.	.	.	.	.	.	.	.	.	.
.	[8aa-X [8a-X/	.	.	.	.	.	.	.	.	.	.	.	.	.	.	.	.
=22	=22	=22	=22	=22	=22	=22	=22	=22	=22	=22	=22	=22	=22	=22	=22	=22	=22
*	*^	*	*	*	*	*	*	*	*	*	*	*	*	*	*	*	*
1D] 1FF] 1DD]	8aa-] 8a-/]	2ryy	.	.	1r	.	.	.	1r	.	.	.	1ryy	.	.	1r	.	.
*	*X8va	*	*	*	*	*	*	*	*	*	*	*	*	*	*	*	*	*
.	4ff 4f\	.	.	.	.	.	.	.	.	.	.	.	.	.	.	.	.	.
.	4dd 4d/	.	.	.	.	.	.	.	.	.	.	.	.	.	.	.	.	.
.	.	8ryy	.	.	.	.	.	.	.	.	.	.	.	.	.	.	.	.
.	8cc/L	4c\	.	.	.	.	.	.	.	.	.	.	.	.	.	.	.	.
.	8d/	.	.	.	.	.	.	.	.	.	.	.	.	.	.	.	.	.
.	8f/J	8A-X\	.	.	.	.	.	.	.	.	.	.	.	.	.	.	.	.
*	*v	*v	*	*	*	*	*	*	*	*	*	*	*	*	*	*	*	*
=23||	=23||	=23||	=23||	=23||	=23||	=23||	=23||	=23||	=23||	=23||	=23||	=23||	=23||	=23||	=23||	=23||	=23||
!!!key: A
*k[f#c#g#]	*k[f#c#g#]	*	*	*k[f#c#g#]	*	*	*	*k[f#c#g#]	*	*	*	*k[f#c#g#]	*	*	*k[f#c#g#]	*	*
*M2/2	*M2/2	*	*	*M2/2	*	*	*	*M2/2	*	*	*	*M2/2	*	*	*M2/2	*	*
*met(c|)	*met(c|)	*	*	*met(c|)	*	*	*	*met(c|)	*	*	*	*met(c|)	*	*	*met(c|)	*	*
!	!LO:TX:a:i:t=(squilli dietro la scena)	!	!	!	!	!	!	!	!	!	!	!	!	!	!	!	!
!	!LO:TX:a:t=(za sceną)	!	!	!	!	!	!	!	!	!	!	!	!	!	!	!	!
!LO:TX:b:t=(w ork.)	!LO:TX:a:B:t=Allegro. (Doppio movimento.)	!	!	!	!	!	!	!	!	!	!	!	!	!	!LO:TX:a:B:t=Allegro. (Doppio movimento.)	!	!
[1E [1EE	4e 4c# 4An/	.	pp	1r	.	.	.	1r	.	.	.	1ryy	.	.	1r	.	.
!	!LO:TX:b:t=Cor.	!	!	!	!	!	!	!	!	!	!	!	!	!	!	!	!
.	8eL 8A/	.	.	.	.	.	.	.	.	.	.	.	.	.	.	.	.
.	8eJ 8A/	.	.	.	.	.	.	.	.	.	.	.	.	.	.	.	.
.	2e 2A/	.	.	.	.	.	.	.	.	.	.	.	.	.	.	.	.
=24	=24	=24	=24	=24	=24	=24	=24	=24	=24	=24	=24	=24	=24	=24	=24	=24	=24
*	*	*	*^	*	*	*	*	*	*	*	*	*	*	*	*	*	*
!	!LO:TX:a:t=Cl.	!	!	!	!	!	!	!	!	!	!	!	!	!	!	!	!	!
1E_ 1EE_	4ee 4a\	.	.	.	1r	.	.	.	1r	.	.	.	1ryy	.	.	1r	.	.
!	!	!	!LO:HP:a:t=sempre crescendo sina al ff, a pag. 224.	!LO:HP:a:t=ciągle crescendo aż do ff str. 224.	!	!	!	!	!	!	!	!	!	!	!	!	!	!
.	8eeL 8a'\	.	<	<	.	.	.	.	.	.	.	.	.	.	.	.	.	.
.	8eeJ 8a'\	.	.	.	.	.	.	.	.	.	.	.	.	.	.	.	.	.
.	2ee 2a\	.	.	.	.	.	.	.	.	.	.	.	.	.	.	.	.	.
*	*	*	*v	*v	*	*	*	*	*	*	*	*	*	*	*	*	*	*
!!LO:LB:g=original
=25	=25	=25	=25	=25	=25	=25	=25	=25	=25	=25	=25	=25	=25	=25	=25	=25	=25
1E_ 1EE_	4e 4A/	.	.	1ryy	.	.	.	1ryy	.	.	.	1ryy	.	.	1ryy	.	.
.	8eL 8A/	.	.	.	.	.	.	.	.	.	.	.	.	.	.	.	.
.	8eJ 8A/	.	.	.	.	.	.	.	.	.	.	.	.	.	.	.	.
.	2e 2A/	.	.	.	.	.	.	.	.	.	.	.	.	.	.	.	.
=26	=26	=26	=26	=26	=26	=26	=26	=26	=26	=26	=26	=26	=26	=26	=26	=26	=26
1E] 1EE]	4ee 4a\	.	.	1ryy	.	.	.	1ryy	.	.	.	1ryy	.	.	1ryy	.	.
.	8eeL 8a'\	.	.	.	.	.	.	.	.	.	.	.	.	.	.	.	.
.	8eeJ 8a'\	.	.	.	.	.	.	.	.	.	.	.	.	.	.	.	.
.	2ee 2a\	.	.	.	.	.	.	.	.	.	.	.	.	.	.	.	.
=27	=27	=27	=27	=27	=27	=27	=27	=27	=27	=27	=27	=27	=27	=27	=27	=27	=27
!	!LO:TX:a:t=Picc. e Cl.	!	!	!	!	!	!	!	!	!	!	!	!	!	!	!	!
16ELL 16D\	4ee\	.	.	1ryy	.	.	.	1ryy	.	.	.	1ryy	.	.	1ryy	.	.
16B\	.	.	.	.	.	.	.	.	.	.	.	.	.	.	.	.	.
16E 16D\	.	.	.	.	.	.	.	.	.	.	.	.	.	.	.	.	.
16B\JJ	.	.	.	.	.	.	.	.	.	.	.	.	.	.	.	.	.
8E 8D\	8.ee\L	.	.	.	.	.	.	.	.	.	.	.	.	.	.	.	.
8r	.	.	.	.	.	.	.	.	.	.	.	.	.	.	.	.	.
.	16ee\Jk	.	.	.	.	.	.	.	.	.	.	.	.	.	.	.	.
16ELL 16C#\	4.ee\	.	.	.	.	.	.	.	.	.	.	.	.	.	.	.	.
16A\	.	.	.	.	.	.	.	.	.	.	.	.	.	.	.	.	.
16E 16C#\	.	.	.	.	.	.	.	.	.	.	.	.	.	.	.	.	.
16A\JJ	.	.	.	.	.	.	.	.	.	.	.	.	.	.	.	.	.
8E 8C#\	.	.	.	.	.	.	.	.	.	.	.	.	.	.	.	.	.
8r	8ff#\	.	.	.	.	.	.	.	.	.	.	.	.	.	.	.	.
=28	=28	=28	=28	=28	=28	=28	=28	=28	=28	=28	=28	=28	=28	=28	=28	=28	=28
16ELL 16D 16BB\	8.ee\L	.	.	1ryy	.	.	.	1ryy	.	.	.	1ryy	.	.	1ryy	.	.
16G#\	.	.	.	.	.	.	.	.	.	.	.	.	.	.	.	.	.
16E 16D 16BB\	.	.	.	.	.	.	.	.	.	.	.	.	.	.	.	.	.
16G#\JJ	16dd\K	.	.	.	.	.	.	.	.	.	.	.	.	.	.	.	.
8E 8D 8BB/	8.cc#\	.	.	.	.	.	.	.	.	.	.	.	.	.	.	.	.
8r	.	.	.	.	.	.	.	.	.	.	.	.	.	.	.	.	.
.	16dd\Jk	.	.	.	.	.	.	.	.	.	.	.	.	.	.	.	.
16ELL 16C# 16AA\	(4ee\	.	.	.	.	.	.	.	.	.	.	.	.	.	.	.	.
16A\	.	.	.	.	.	.	.	.	.	.	.	.	.	.	.	.	.
16E 16C# 16AA\	.	.	.	.	.	.	.	.	.	.	.	.	.	.	.	.	.
16A\JJ	.	.	.	.	.	.	.	.	.	.	.	.	.	.	.	.	.
8E 8C# 8AA/	8aa\)	.	.	.	.	.	.	.	.	.	.	.	.	.	.	.	.
8r	8r	.	.	.	.	.	.	.	.	.	.	.	.	.	.	.	.
!!LO:PB:g=original
=29	=29	=29	=29	=29	=29	=29	=29	=29	=29	=29	=29	=29	=29	=29	=29	=29	=29
16G#LL 16E 16D\	8.ee\L	.	.	1ryy	.	.	.	1ryy	.	.	.	1r	.	.	1ryy	.	.
16B\	.	.	.	.	.	.	.	.	.	.	.	.	.	.	.	.	.
16G# 16E 16D\	.	.	.	.	.	.	.	.	.	.	.	.	.	.	.	.	.
16B\JJ	16dd\K	.	.	.	.	.	.	.	.	.	.	.	.	.	.	.	.
8G# 8E 8D\	8.cc#\	.	.	.	.	.	.	.	.	.	.	.	.	.	.	.	.
8r	.	.	.	.	.	.	.	.	.	.	.	.	.	.	.	.	.
.	16b\Jk	.	.	.	.	.	.	.	.	.	.	.	.	.	.	.	.
16ELL 16C#\	8.cc#\L	.	.	.	.	.	.	.	.	.	.	.	.	.	.	.	.
16A\	.	.	.	.	.	.	.	.	.	.	.	.	.	.	.	.	.
16E 16C#\	.	.	.	.	.	.	.	.	.	.	.	.	.	.	.	.	.
16A\JJ	16a\K	.	.	.	.	.	.	.	.	.	.	.	.	.	.	.	.
8E 8C#\	8.cc#\	.	.	.	.	.	.	.	.	.	.	.	.	.	.	.	.
8r	.	.	.	.	.	.	.	.	.	.	.	.	.	.	.	.	.
.	16dd\Jk	.	.	.	.	.	.	.	.	.	.	.	.	.	.	.	.
=30	=30	=30	=30	=30	=30	=30	=30	=30	=30	=30	=30	=30	=30	=30	=30	=30	=30
16ELL 16D 16BB\	(2ee\	.	.	1ryy	.	.	.	1ryy	.	.	.	1r	.	.	1ryy	.	.
16G#\	.	.	.	.	.	.	.	.	.	.	.	.	.	.	.	.	.
16E 16D 16BB\	.	.	.	.	.	.	.	.	.	.	.	.	.	.	.	.	.
16G#\JJ	.	.	.	.	.	.	.	.	.	.	.	.	.	.	.	.	.
8E 8D 8BB\	.	.	.	.	.	.	.	.	.	.	.	.	.	.	.	.	.
8r	.	.	.	.	.	.	.	.	.	.	.	.	.	.	.	.	.
16ELL 16C# 16AA\	8ccc#\)	.	.	.	.	.	.	.	.	.	.	.	.	.	.	.	.
16A\	.	.	.	.	.	.	.	.	.	.	.	.	.	.	.	.	.
16E 16C# 16AA\	8r	.	.	.	.	.	.	.	.	.	.	.	.	.	.	.	.
16A\JJ	.	.	.	.	.	.	.	.	.	.	.	.	.	.	.	.	.
8E 8C# 8AA/	8ee'\L	.	.	.	.	.	.	.	.	.	.	.	.	.	.	.	.
8r	8ff#'\J	.	.	.	.	.	.	.	.	.	.	.	.	.	.	.	.
=31	=31	=31	=31	=31	=31	=31	=31	=31	=31	=31	=31	=31	=31	=31	=31	=31	=31
16ELL 16C# 16AA#X\	4ggn\	.	.	1ryy	.	.	.	1ryy	.	.	.	4r	.	.	1ryy	.	.
16Gn\	.	.	.	.	.	.	.	.	.	.	.	.	.	.	.	.	.
16E 16C# 16AA#\	.	.	.	.	.	.	.	.	.	.	.	.	.	.	.	.	.
16G\JJ	.	.	.	.	.	.	.	.	.	.	.	.	.	.	.	.	.
8E 8C# 8AA#/	8.gg\L	.	.	.	.	.	.	.	.	.	.	4Gn\	O	Oh	.	.	.
8r	.	.	.	.	.	.	.	.	.	.	.	.	.	.	.	.	.
.	16gg\Jk	.	.	.	.	.	.	.	.	.	.	.	.	.	.	.	.
16DLL 16BB\	4.gg\	.	.	.	.	.	.	.	.	.	.	4.G\	bie-	qual	.	.	.
16G\	.	.	.	.	.	.	.	.	.	.	.	.	.	.	.	.	.
16D 16BB\	.	.	.	.	.	.	.	.	.	.	.	.	.	.	.	.	.
16G\JJ	.	.	.	.	.	.	.	.	.	.	.	.	.	.	.	.	.
8D 8BB/	.	.	.	.	.	.	.	.	.	.	.	.	.	.	.	.	.
8r	8aa\	.	.	.	.	.	.	.	.	.	.	8F#\	-dne	sven-	.	.	.
!!LO:LB:g=original
=32	=32	=32	=32	=32	=32	=32	=32	=32	=32	=32	=32	=32	=32	=32	=32	=32	=32
!LO:SIC:v:s=16GLL 16E 16Cn\	!	!	!	!	!	!	!	!	!	!	!	!	!	!	!	!	!
16G#LL 16E 16Cn\	8.ggn\L	.	.	1r	.	.	.	1r	.	.	.	4Gn\	dzie-	-tu-	1ryy	.	.
16An\	.	.	.	.	.	.	.	.	.	.	.	.	.	.	.	.	.
!LO:SIC:v:s=16G 16E 16C\	!	!	!	!	!	!	!	!	!	!	!	!	!	!	!	!	!
16G# 16E 16C\	.	.	.	.	.	.	.	.	.	.	.	.	.	.	.	.	.
16A\JJ	16ff#\K	.	.	.	.	.	.	.	.	.	.	.	.	.	.	.	.
!LO:SIC:v:s=8G 8E 8C\	!	!	!	!	!	!	!	!	!	!	!	!	!	!	!	!	!
8G# 8E 8C\	8.ee\	.	.	.	.	.	.	.	.	.	.	4G\	-cię!	-ra!	.	.	.
8r	.	.	.	.	.	.	.	.	.	.	.	.	.	.	.	.	.
.	16ff#\Jk	.	.	.	.	.	.	.	.	.	.	.	.	.	.	.	.
16ELL 16C#X\	4gg\	.	.	.	.	.	.	.	.	.	.	2r	.	.	.	.	.
16A#X\	.	.	.	.	.	.	.	.	.	.	.	.	.	.	.	.	.
16E 16C#\	.	.	.	.	.	.	.	.	.	.	.	.	.	.	.	.	.
16A#\JJ	.	.	.	.	.	.	.	.	.	.	.	.	.	.	.	.	.
8E 8C#\	8ee'\L	.	.	.	.	.	.	.	.	.	.	.	.	.	.	.	.
8r	8ff#'\J	.	.	.	.	.	.	.	.	.	.	.	.	.	.	.	.
=33	=33	=33	=33	=33	=33	=33	=33	=33	=33	=33	=33	=33	=33	=33	=33	=33	=33
16GnLL 16D\	2ggn^<T\	.	.	2.D^\	.	.	p	2.B^\	Bia-	El-	p	1r	.	.	1ryy	.	.
16B\	.	.	.	.	.	.	.	.	.	.	.	.	.	.	.	.	.
16G 16D\	.	.	.	.	.	.	.	.	.	.	.	.	.	.	.	.	.
16B\JJ	.	.	.	.	.	.	.	.	.	.	.	.	.	.	.	.	.
8G 8D\	.	.	.	.	.	.	.	.	.	.	.	.	.	.	.	.	.
8r	.	.	.	.	.	.	.	.	.	.	.	.	.	.	.	.	.
.	16qqff#/LL	.	.	.	.	.	.	.	.	.	.	.	.	.	.	.	.
.	16qqgg/JJ	.	.	.	.	.	.	.	.	.	.	.	.	.	.	.	.
16G#XLL 16E 16D\	2gg#X^<t\	.	.	.	.	.	.	.	.	.	.	.	.	.	.	.	.
16B\	.	.	.	.	.	.	.	.	.	.	.	.	.	.	.	.	.
16G# 16E 16D\	.	.	.	.	.	.	.	.	.	.	.	.	.	.	.	.	.
16B\JJ	.	.	.	.	.	.	.	.	.	.	.	.	.	.	.	.	.
8G# 8E 8D\	.	.	.	4D\	.	.	.	4B\	-da	-la	.	.	.	.	.	.	.
8r	.	.	.	.	.	.	.	.	.	.	.	.	.	.	.	.	.
.	16qqff#/LL	.	.	.	.	.	.	.	.	.	.	.	.	.	.	.	.
.	16qqgg#/JJ	.	.	.	.	.	.	.	.	.	.	.	.	.	.	.	.
=34	=34	=34	=34	=34	=34	=34	=34	=34	=34	=34	=34	=34	=34	=34	=34	=34	=34
16F#LL 16D\	(2aa\	.	.	4A\	.	.	.	4A/	jej!	vien!	.	1r	.	.	1ryy	.	.
16A\	.	.	.	.	.	.	.	.	.	.	.	.	.	.	.	.	.
16F# 16D\	.	.	.	.	.	.	.	.	.	.	.	.	.	.	.	.	.
16A\JJ	.	.	.	.	.	.	.	.	.	.	.	.	.	.	.	.	.
8F# 8D\	.	.	.	4r	.	.	.	4r	.	.	.	.	.	.	.	.	.
8r	.	.	.	.	.	.	.	.	.	.	.	.	.	.	.	.	.
16ELL 16C#\	8ee\)	.	.	2r	.	.	.	2r	.	.	.	.	.	.	.	.	.
16A\	.	.	.	.	.	.	.	.	.	.	.	.	.	.	.	.	.
16E 16C#\	8r	.	.	.	.	.	.	.	.	.	.	.	.	.	.	.	.
16A\JJ	.	.	.	.	.	.	.	.	.	.	.	.	.	.	.	.	.
8E 8C#\	8eee'\L	.	.	.	.	.	.	.	.	.	.	.	.	.	.	.	.
8r	8ddd'\J	.	.	.	.	.	.	.	.	.	.	.	.	.	.	.	.
!!LO:LB:g=original
=35	=35	=35	=35	=35	=35	=35	=35	=35	=35	=35	=35	=35	=35	=35	=35	=35	=35
16ELL 16C#\	4ccc#^\	.	.	4E\	.	.	.	4c#\	Szczę-	Rat-	.	1ryy	.	.	1ryy	.	.
16A\	.	.	.	.	.	.	.	.	.	.	.	.	.	.	.	.	.
16E 16C#\	.	.	.	.	.	.	.	.	.	.	.	.	.	.	.	.	.
16A\JJ	.	.	.	.	.	.	.	.	.	.	.	.	.	.	.	.	.
8E 8C#\	8bb'\L	.	.	4E\	.	.	.	4c#\	-ście	-to	.	.	.	.	.	.	.
8r	8aa'\J	.	.	.	.	.	.	.	.	.	.	.	.	.	.	.	.
16F#LL 16C#\	4aa^\	.	.	4r	.	.	.	4r	.	.	.	.	.	.	.	.	.
16A\	.	.	.	.	.	.	.	.	.	.	.	.	.	.	.	.	.
16F# 16C#\	.	.	.	.	.	.	.	.	.	.	.	.	.	.	.	.	.
16A\JJ	.	.	.	.	.	.	.	.	.	.	.	.	.	.	.	.	.
8F# 8C#\	8gg#'\L	.	.	8C#/	.	.	.	8A/	po-	di	.	.	.	.	.	.	.
8r	8ff#'\J	.	.	8C#/	.	.	.	8A/	-żą-	spe-	.	.	.	.	.	.	.
=36	=36	=36	=36	=36	=36	=36	=36	=36	=36	=36	=36	=36	=36	=36	=36	=36	=36
16ELL 16C#\	8ee'\L	.	.	4C#/	.	.	.	4A/	-da-	-ran-	.	1ryy	.	.	1ryy	.	.
16A\	.	.	.	.	.	.	.	.	.	.	.	.	.	.	.	.	.
16E 16C#\	8cc#'\	.	.	.	.	.	.	.	.	.	.	.	.	.	.	.	.
16A\JJ	.	.	.	.	.	.	.	.	.	.	.	.	.	.	.	.	.
8E 8C#\	8ee'\	.	.	4C#/	.	.	.	4A/	-ne	-za	.	.	.	.	.	.	.
8r	8aa'\J	.	.	.	.	.	.	.	.	.	.	.	.	.	.	.	.
16G#LL 16E 16D\	4ee\	.	.	4r	.	.	.	4r	.	.	.	.	.	.	.	.	.
16B\	.	.	.	.	.	.	.	.	.	.	.	.	.	.	.	.	.
16G# 16E 16D\	.	.	.	.	.	.	.	.	.	.	.	.	.	.	.	.	.
16B\JJ	.	.	.	.	.	.	.	.	.	.	.	.	.	.	.	.	.
8G# 8E 8D\	8eee'\L	.	.	4E\	.	.	.	4G#/	zna-	il	.	.	.	.	.	.	.
8r	8ddd'\J	.	.	.	.	.	.	.	.	.	.	.	.	.	.	.	.
=37	=37	=37	=37	=37	=37	=37	=37	=37	=37	=37	=37	=37	=37	=37	=37	=37	=37
16ELL 16C#\	4ccc#^\	.	.	4.E 4.C#\	.	.	.	4.A/	-la-	so-	.	1ryy	.	.	1ryy	.	.
16A\	.	.	.	.	.	.	.	.	.	.	.	.	.	.	.	.	.
16E 16C#\	.	.	.	.	.	.	.	.	.	.	.	.	.	.	.	.	.
16A\JJ	.	.	.	.	.	.	.	.	.	.	.	.	.	.	.	.	.
8E 8C#\	8bb'\L	.	.	.	.	.	.	.	.	.	.	.	.	.	.	.	.
8r	8aa'\J	.	.	8E 8C#\	.	.	.	8A/	-zło	-gno	.	.	.	.	.	.	.
16F#LL 16D 16BB\	4aa^\	.	.	4.F# 4.BB\	.	.	.	4.d\	tu-	di-	.	.	.	.	.	.	.
16A\	.	.	.	.	.	.	.	.	.	.	.	.	.	.	.	.	.
16F# 16D 16BB\	.	.	.	.	.	.	.	.	.	.	.	.	.	.	.	.	.
16A\JJ	.	.	.	.	.	.	.	.	.	.	.	.	.	.	.	.	.
8F# 8D 8BB\	8gg#'\L	.	.	.	.	.	.	.	.	.	.	.	.	.	.	.	.
8r	8ff#'\J	.	.	8F# 8BB\	.	.	.	8d\	-taj	-le	.	.	.	.	.	.	.
==	==	==	==	==	==	==	==	==	==	==	==	==	==	==	==	==	==
*-	*-	*-	*-	*-	*-	*-	*-	*-	*-	*-	*-	*-	*-	*-	*-	*-	*-
!!!system-decoration: <s1,s2>[(s3,s4)]{(klav)}
!!!RDF**kern: > = above
!!!RDF**kern: < = below
!!!ENC: Filip Voros
!!!END: 2022-09-06
!!!ENC: Andrzej Kubiczek
!!!END: 2022-10-16
